assets/icons/github.svg

<svg width="41" height="41" viewBox="0 0 41 41" fill="none" xmlns="http://www.w3.org/2000/svg">
<g clip-path="url(#clip0_973_2327)">
<path d="M20.5002 3.6416C11.2918 3.6416 3.8335 11.0999 3.8335 20.3083C3.83161 23.8071 4.93152 27.2176 6.97719 30.0561C9.02286 32.8945 11.9104 35.0167 15.2302 36.1216C16.0635 36.2666 16.3752 35.7666 16.3752 35.3283C16.3752 34.9333 16.3535 33.6216 16.3535 32.2249C12.1668 32.9966 11.0835 31.2049 10.7502 30.2666C10.5618 29.7866 9.75016 28.3083 9.04183 27.9116C8.4585 27.5999 7.62516 26.8283 9.02016 26.8083C10.3335 26.7866 11.2702 28.0166 11.5835 28.5166C13.0835 31.0366 15.4802 30.3283 16.4368 29.8916C16.5835 28.8083 17.0202 28.0799 17.5002 27.6633C13.7918 27.2466 9.91683 25.8083 9.91683 19.4333C9.91683 17.6199 10.5618 16.1216 11.6252 14.9533C11.4585 14.5366 10.8752 12.8283 11.7918 10.5366C11.7918 10.5366 13.1868 10.0999 16.3752 12.2466C17.7319 11.87 19.1338 11.6805 20.5418 11.6833C21.9585 11.6833 23.3752 11.8699 24.7085 12.2449C27.8952 10.0783 29.2918 10.5383 29.2918 10.5383C30.2085 12.8299 29.6252 14.5383 29.4585 14.9549C30.5202 16.1216 31.1668 17.5999 31.1668 19.4333C31.1668 25.8299 27.2718 27.2466 23.5635 27.6633C24.1668 28.1833 24.6885 29.1833 24.6885 30.7466C24.6885 32.9749 24.6668 34.7666 24.6668 35.3299C24.6668 35.7666 24.9802 36.2866 25.8135 36.1199C29.1219 35.0029 31.9967 32.8766 34.0333 30.0402C36.07 27.2038 37.1659 23.8001 37.1668 20.3083C37.1668 11.0999 29.7085 3.6416 20.5002 3.6416Z" fill="#F6F6F6"/>
</g>
<defs>
<clipPath id="clip0_973_2327">
<rect width="40" height="40" fill="white" transform="translate(0.5 0.308594)"/>
</clipPath>
</defs>
</svg>

<svg width="41" height="41" fill="none" xmlns="http://www.w3.org/2000/svg"><g clip-path="url(#a)"><path d="M20.5 3.642c-9.208 0-16.666 7.458-16.666 16.666A16.657 16.657 0 0 0 15.23 36.122c.834.145 1.145-.355 1.145-.794 0-.395-.021-1.706-.021-3.103-4.187.772-5.27-1.02-5.604-1.958-.188-.48-1-1.959-1.708-2.355-.583-.312-1.417-1.084-.022-1.104 1.314-.021 2.25 1.209 2.564 1.709 1.5 2.52 3.896 1.811 4.853 1.375.146-1.084.583-1.812 1.063-2.229-3.708-.416-7.583-1.855-7.583-8.23 0-1.813.645-3.311 1.708-4.48-.166-.416-.75-2.125.167-4.416 0 0 1.395-.437 4.583 1.71a15.463 15.463 0 0 1 4.167-.564c1.416 0 2.833.187 4.166.562 3.187-2.167 4.584-1.707 4.584-1.707.916 2.292.333 4 .166 4.417 1.062 1.167 1.709 2.645 1.709 4.478 0 6.397-3.895 7.814-7.604 8.23.604.52 1.126 1.52 1.126 3.084 0 2.228-.022 4.02-.022 4.583 0 .437.313.957 1.146.79a16.693 16.693 0 0 0 11.354-15.812c0-9.208-7.459-16.666-16.667-16.666Z" fill="#F6F6F6"/></g><defs><clipPath id="a"><path fill="#fff" transform="translate(.5 .309)" d="M0 0h40v40H0z"/></clipPath></defs></svg>
